src/categories-icons-sprite/categories/svg-cat-sport-roller.svg

<svg width="27" height="25" viewBox="0 0 27 25" fill="none" xmlns="http://www.w3.org/2000/svg">
<path class="p-006EFF" d="M25.0522 14.8435C25.0522 11.7181 22.9893 9.04167 20.1635 8.12939L17.0851 11.6664L16.9736 15.6247L21.5366 17.1872L25.0522 15.6247V14.8435Z" fill="#4D98CB"/>
<path class="p-575F64" d="M14.1143 0V4.58333L12.5518 6.19792H4.9423L3.09863 4.58333C3.14543 4.27083 3.17676 3.94267 3.17676 3.6145V1.45833L3.09863 0H14.1143Z" fill="#B9DFFC"/>
<path class="p-32393F" d="M14.1143 0V4.58333L13.333 5.36458V0H14.1143Z" fill="#A1D1FD"/>
<path class="p-73BCFF" d="M20.1612 8.13529L16.9738 15.6249L15.2705 17.1874L13.333 16.078L12.5518 15.6249L7.86426 12.0885L6.30176 7.76034L7.86426 4.58325H14.1143V5.3645C14.1143 6.6615 14.3277 8.59367 15.6247 8.59367L18.0205 7.76034C18.1924 7.76034 19.333 7.85413 20.1612 8.13529Z" fill="#65B3E7"/>
<path class="p-006EFF" d="M3.09648 4.58325C2.87431 6.07821 2.44035 6.48735 2.02734 7.76034L7.86434 12.0932V4.58325H3.09648Z" fill="#65B3E7"/>
<path class="p-0095FF" d="M20.1612 8.13529L16.9738 15.6249L15.2705 17.1874L13.333 16.078V4.58325H14.1143V5.3645C14.1143 6.6615 14.3277 8.59367 15.6247 8.59367L18.0205 7.76034C18.1924 7.76034 19.333 7.85413 20.1612 8.13529Z" fill="#58ADE5"/>
<path class="p-0095FF" d="M5.52051 7.7605H2.02726C1.76237 8.57694 1.61426 9.43184 1.61426 10.289V15.6251L3.17676 17.1876H10.208L12.5518 15.6251V14.8438C12.5518 10.9606 9.40377 7.7605 5.52051 7.7605Z" fill="#A1D1FD"/>
<path class="p-575F64" d="M1.61426 15.625H25.0518V18.75H1.61426V15.625Z" fill="#65B3E7"/>
<path class="p-32393F" d="M13.333 15.625H25.0518V18.75H13.333V15.625Z" fill="#4D98CB"/>
<path class="p-32393F" d="M16.458 20.3125H19.583V21.875H16.458V20.3125Z" fill="#65B3E7"/>
<path class="p-575F64" d="M7.08301 20.3125H10.208V21.875H7.08301V20.3125Z" fill="#A1D1FD"/>
<path class="p-A1D1FD" d="M3.95833 25C1.80461 25 0 23.2475 0 21.0938C0 18.94 1.80461 17.1875 3.95833 17.1875C6.11206 17.1875 7.86458 18.94 7.86458 21.0938C7.86458 23.2475 6.11206 25 3.95833 25Z" fill="#A1D1FD"/>
<path class="p-65B3E7" d="M22.708 25C20.5543 25 18.8018 23.2475 18.8018 21.0938C18.8018 18.94 20.5543 17.1875 22.708 17.1875C24.8617 17.1875 26.6663 18.94 26.6663 21.0938C26.6663 23.2475 24.8617 25 22.708 25Z" fill="#65B3E7"/>
<path class="p-ECECF1" d="M3.95801 18.75C2.66569 18.75 1.61426 19.8014 1.61426 21.0938C1.61426 22.3861 2.66569 23.4375 3.95801 23.4375C5.25033 23.4375 6.30176 22.3861 6.30176 21.0938C6.30176 19.8014 5.25033 18.75 3.95801 18.75Z" fill="#B9DFFC"/>
<path class="p-D3D3D8" d="M22.708 18.75C21.4157 18.75 20.3643 19.8014 20.3643 21.0938C20.3643 22.3861 21.4157 23.4375 22.708 23.4375C24.0003 23.4375 25.0518 22.3861 25.0518 21.0938C25.0518 19.8014 24.0003 18.75 22.708 18.75Z" fill="#A1D1FD"/>
<path class="p-575F64" d="M3.17676 20.3125H4.73926V21.875H3.17676V20.3125Z" fill="#58ADE5"/>
<path class="p-32393F" d="M21.9268 20.3125H23.4893V21.875H21.9268V20.3125Z" fill="#4D98CB"/>
<path class="p-A1D1FD" d="M13.333 17.1875C11.1768 17.1875 9.42676 18.9376 9.42676 21.0938C9.42676 23.2499 11.1768 25 13.333 25C15.4892 25 17.2393 23.2499 17.2393 21.0938C17.2393 18.9376 15.4892 17.1875 13.333 17.1875Z" fill="#A1D1FD"/>
<path class="p-65B3E7" d="M17.2393 21.0938C17.2393 23.2499 15.4892 25 13.333 25V17.1875C15.4892 17.1875 17.2393 18.9376 17.2393 21.0938Z" fill="#65B3E7"/>
<path class="p-ECECF1" d="M13.333 18.75C12.036 18.75 10.9893 19.7968 10.9893 21.0938C10.9893 22.3907 12.036 23.4375 13.333 23.4375C14.63 23.4375 15.6768 22.3907 15.6768 21.0938C15.6768 19.7968 14.63 18.75 13.333 18.75Z" fill="#B9DFFC"/>
<path class="p-D3D3D8" d="M15.6768 21.0938C15.6768 22.3907 14.63 23.4375 13.333 23.4375V18.75C14.63 18.75 15.6768 19.7968 15.6768 21.0938Z" fill="#A1D1FD"/>
<path class="p-575F64" d="M12.5518 20.3125H14.1143V21.875H12.5518V20.3125Z" fill="#58ADE5"/>
<path class="p-32393F" d="M13.333 20.3125H14.1143V21.875H13.333V20.3125Z" fill="#4D98CB"/>
</svg>

<svg width="27" height="25" fill="none" xmlns="http://www.w3.org/2000/svg"><path class="p-006EFF" d="M25.052 14.844c0-3.126-2.063-5.802-4.889-6.715l-3.078 3.537-.111 3.959 4.563 1.562 3.515-1.562v-.781z" fill="#4D98CB"/><path class="p-575F64" d="M14.114 0v4.583l-1.562 1.615h-7.61L3.1 4.583c.046-.312.078-.64.078-.969V1.458L3.099 0h11.015z" fill="#B9DFFC"/><path class="p-32393F" d="M14.114 0v4.583l-.781.782V0h.781z" fill="#A1D1FD"/><path class="p-73BCFF" d="M20.161 8.135l-3.187 7.49-1.704 1.562-1.937-1.109-.781-.453-4.688-3.537L6.302 7.76l1.562-3.177h6.25v.781c0 1.298.214 3.23 1.51 3.23l2.396-.834c.172 0 1.313.094 2.141.375z" fill="#65B3E7"/><path class="p-006EFF" d="M3.096 4.583C2.874 6.078 2.44 6.487 2.027 7.76l5.837 4.333v-7.51H3.096z" fill="#65B3E7"/><path class="p-0095FF" d="M20.161 8.135l-3.187 7.49-1.704 1.562-1.937-1.109V4.583h.781v.781c0 1.298.214 3.23 1.51 3.23l2.396-.834c.172 0 1.313.094 2.141.375z" fill="#58ADE5"/><path class="p-0095FF" d="M5.52 7.76H2.028a8.215 8.215 0 00-.413 2.529v5.336l1.563 1.563h7.031l2.344-1.563v-.781c0-3.883-3.148-7.083-7.031-7.083z" fill="#A1D1FD"/><path class="p-575F64" d="M1.614 15.625h23.438v3.125H1.614v-3.125z" fill="#65B3E7"/><path class="p-32393F" d="M13.333 15.625h11.719v3.125H13.333v-3.125z" fill="#4D98CB"/><path class="p-32393F" d="M16.458 20.313h3.125v1.562h-3.125v-1.563z" fill="#65B3E7"/><path class="p-575F64" d="M7.083 20.313h3.125v1.562H7.083v-1.563z" fill="#A1D1FD"/><path class="p-A1D1FD" d="M3.958 25C1.805 25 0 23.247 0 21.094c0-2.154 1.805-3.907 3.958-3.907a3.91 3.91 0 013.907 3.907A3.91 3.91 0 013.958 25z" fill="#A1D1FD"/><path class="p-65B3E7" d="M22.708 25a3.91 3.91 0 01-3.906-3.906 3.91 3.91 0 013.906-3.907c2.154 0 3.958 1.753 3.958 3.907 0 2.153-1.804 3.906-3.958 3.906z" fill="#65B3E7"/><path class="p-ECECF1" d="M3.958 18.75a2.346 2.346 0 00-2.344 2.344 2.346 2.346 0 002.344 2.343 2.346 2.346 0 002.344-2.343 2.346 2.346 0 00-2.344-2.344z" fill="#B9DFFC"/><path class="p-D3D3D8" d="M22.708 18.75a2.346 2.346 0 00-2.344 2.344 2.346 2.346 0 002.344 2.343 2.346 2.346 0 002.344-2.343 2.346 2.346 0 00-2.344-2.344z" fill="#A1D1FD"/><path class="p-575F64" d="M3.177 20.313h1.562v1.562H3.177v-1.563z" fill="#58ADE5"/><path class="p-32393F" d="M21.927 20.313h1.562v1.562h-1.562v-1.563z" fill="#4D98CB"/><path class="p-A1D1FD" d="M13.333 17.188a3.908 3.908 0 00-3.906 3.906A3.908 3.908 0 0013.333 25a3.908 3.908 0 003.906-3.906 3.908 3.908 0 00-3.906-3.907z" fill="#A1D1FD"/><path class="p-65B3E7" d="M17.24 21.094A3.908 3.908 0 0113.332 25v-7.813a3.908 3.908 0 013.906 3.907z" fill="#65B3E7"/><path class="p-ECECF1" d="M13.333 18.75a2.34 2.34 0 00-2.344 2.344 2.34 2.34 0 002.344 2.343 2.34 2.34 0 002.344-2.343 2.34 2.34 0 00-2.344-2.344z" fill="#B9DFFC"/><path class="p-D3D3D8" d="M15.677 21.094a2.34 2.34 0 01-2.344 2.343V18.75a2.34 2.34 0 012.344 2.344z" fill="#A1D1FD"/><path class="p-575F64" d="M12.552 20.313h1.562v1.562h-1.562v-1.563z" fill="#58ADE5"/><path class="p-32393F" d="M13.333 20.313h.781v1.562h-.781v-1.563z" fill="#4D98CB"/></svg>
